X:1
T:You gave me your heart - Webbe
T:#
%%score [ 1 2 { 3 | 4 } 5 ]
L:1/8
Q:1/4=100
M:3/4
K:A
V:1 treble nm="Soprrano"
V:2 treble nm="Alto"
V:3 treble-8 nm="Tenor I"
V:4 treble-8 
V:5 bass nm="Bass"
V:1
"^andante""^Samuel Webbe\n(1740-1816)""^You gave me your heart" A2 | A3 B c2 | B4 cd | (d2 c2) c2 | %4
w: You|gave me your|heart t'o- ther|day, * I|
 c2 B2 A2 | (e>f) c2 TB2 | A4 z2 | z6 | z2!p! e4 |"^cresc." e2 e2 ^d2 | %10
w: thought it as|safe * as my|own,||you|gave me your|
 (e>f) (e!courtesy!=d) (cB) | c4!f! e2 | ^d3 d e2 | e2 e2 T^d2 | e4 :: z2 | z6 | z6 | z6 | z6 | %20
w: heart * t'o\- * ther *|day, I|thought it as|safe as my|own.||||||
 z6 | z2 z2!p! e=d | c2 c2 d2 |"^cresc." c3 d e2 |!f! f6- | f4!p! f2 | %26
w: |I've not|lost it, but|what can I|say?|* Not|
[Q:1/4=100] e2[Q:1/4=100] G2[Q:1/4=100] A2 |[Q:1/4=100] (A>B)[Q:1/4=100] c2[Q:1/4=100] TB2 | %28
w: your heart from|mine * can be|
[Q:1/4=100] A4 :| %29
w: known.|
V:2
 E2 | E2 EE A2- | A2 G2 (AB) | (B2 A2) A2 | A2 G2 A2 | A4 GG | A4!p! E2 | E6- | E6 | %9
w: You|gave me your heart|* t'o- ther *|day, * I|thought it as|safe as my|own, you|gave||
"^cresc." E2 (EF) (GA) | (G>A) (GB) (AG) | A4!f! A2 | A3 B G2 | (Bc/A/) G2 TF2 | E4 ::!p! EF | %16
w: * me * your *|heart * t'o\- * ther *|day, I|thought it as|safe * * as my|own.|I've not|
 A2 E2 z E | D2 D2 F^A | B2 F2 B,B, | B,2 B,2 E2 | E3 E A2 | G4 GB | E2 E2 G2 |"^cresc." A3 D C2 | %24
w: lost it, not|lost it, I've not|lost it, I've not|lost it, but|what can I|say, I've not|lost it, but|what can I|
!f! D6- | D4!p! D2 | C2 (D>B,) (E>C) | F2 (E>A) TG2 | A4 :| %29
w: say?|* Not|your heart * from *|mine can * be|known.|
V:3
 c2 | c3 d e2 | e4 ag | (g2 a2) A2 | A3 d c2 | c3 A d2 | c4!p! c2 | (c3/2d/4e/4) d2 c2 | %8
w: You|gave me your|heart t'o- ther|day, * I|thought it as|safe as my|own, you|gave * * me your|
 (B3/2c/4d/4 c2) d2 |"^cresc." c2 B2 A2 | B4 cd | c4!f! c2 | B3 B E2 | E2 B2 B2 | B4 :: z2 | %16
w: heart, * * * you|gave me your|heart t'o- ther|day, I|thought it as|safe as my|own.||
 z2!p! A3 =G | F2 F2 z2 | z2 z2 B^d | e2 B2 B2 | c3 e ^d2 | e6- | e6 |"^cresc." e3 f e2 |!f! A6 | %25
w: I've not|lost it,|I've not|lost it, but|what can I|say,||what can I|say?|
 G4!p! B2 | (ce) d2 c2 | B2 E2 d2 | c4 :| %29
w: * Not|your * heart from|mine can be|known.|
V:4
 A2 | A3 A A2 | B4 Ae | e4 e2 | e2 E2 A2 | A2 E2 E2 | E4 z2 | z2 z2!p! A2 | (G3/2A/4B/4) A2 B2 | %9
w: You|gave me your|heart t'o- ther|day, I|thought it as|safe as my|own,|you|gave * * me, you|
"^cresc." A2 G2 F2 | E4 EE | E4!f! A2 | F3 F E2 | (GF) E2 A2 | G4 :: z2 | z2 z2!p! Ac | d2 A2 z e | %18
w: gave me your|heart t'o- ther|day, I|thought it as|safe * as my|own.||I've not|lost it, not|
 ^d2 B3 A | G2 G2 G2 | A3 B A2 | B4 BG | A2 A2 B2 |"^cresc." A4 =G2 |!f! F3 ^G A2 | B4!p! B2 | %26
w: lost, I've not|lost it, but|what can I|say, I've not|lost it, but|what, but|what can I|say? Not|
 E2 B2 A2 | A2 A>E E2 | E4 :| %29
w: your heart from|mine can * be|known.|
V:5
 A,,2 | A,,3 A,, A,,2 | E,4 E,E, | A,4 A,2 | E,2 E,2 F,2 | (C,>D,) E,2 E,2 | A,,4!p! A,2 | %7
w: You|gave me your|heart t'o- ther|day, I|thought it as|safe * as my|own, you|
 (A,3/2B,/4C/4) B,2 A,2 | E,6- |"^cresc." E,6 | E,4 E,E, | A,,4!f! A,,2 | B,,3 B,, C,2 | %13
w: gave * * me, your|heart||* t'o- ther|day, I|thought it as|
 (G,,A,,) B,,2 B,,2 | E,4 ::!p! E,D, | C,2 C,2 z2 | z2 D,3 =C, | B,,2 B,,2 z B,, | E,2 E,2 E,2 | %20
w: safe * as my|own.|I've not|lost it,|I've not|lost it, not|lost it, but|
 A,3 G, F,2 | E,6- | E,6 |"^cresc." E,6 |!f! D,3 E, F,2 | G,4!p! G,,2 | A,,2 B,,2 C,2 | %27
w: what can I|say,|||what can I|say? Not|your heart from|
 D,2 E,2 E,2 | A,,4 :| %29
w: mine can be|known.|

